X:5
T:Песнь 6
M:4/4
L:1/4
Q:1/4=120
K:F
V:1 clef=treble name="Soprano"
%%MIDI program 40
V:2 clef=treble name="Alto"
%%MIDI program 40
V:3 clef=bass octave=-1 name="Tenor"
%%MIDI program 40
V:4 clef=bass octave=-2 name="Bass"
%%MIDI program 40
%%score [(1 2) (3 4)]
%%tempo { 40, 60, *80, 100, 120, 140 }
%%player_top
[V:1]ABc2ABc2ABcccBcd(cB/A/)G2 |
s: "Песнь 6"
[V:2]FGA2FGA2FGAAAGAB(AG/F/)E2 |
w:Из ут-ро-бы И-о-ну мла-ден-ца из-бле-ва морс-кий ** зверь
[V:3]ccf2ccf2ccffffff(fc)c2 |
[V:4]fff2fff2fffffffff2c2 |
[V:1]EFG/A/BA2 | c2ABcccd(cB/A/)G2 |
[V:2]CDE/F/GF2 | A2FGAAAB(AG/F/)E2 |
w:я-ко-ва* при-ят. ВДе-ву же всель-ше-е-ся Сло---во
[V:3]ccccc2 | f2ccffff(fc)c2 |
[V:4]ccccf2 | f2fffffff2c2 |
[V:1]EEFG2FEF2FGAAGA(B/A/G)A2 |
[V:2]^CCDE2DCD2DEFFEF(G/F/E)F2 |
w:и плоть при-ем-ше-е прой-де, со-хран-ше-е не-тлен---ну:
[V:3]AAAA2AAA2Acccccc2c2 |
[V:4]AAAA2AAd2dcffccc2f2 |
[V:1]AcccBABcBA2A2B2 |
[V:2]FAAAGFGAG^F2F2G2 |
w:е-го же бо не по-стра-да ис-тле-ни-я
[V:3]ccccccccdd2d2d2 |
[V:4]ffffffffgd2d2g2 |
[V:1]B2BAGAB2 | GA(B2G2)A4 |]
[V:2]G2GFEFG2 | GF(G2E2)F4 |]
w:Рожд-шу-ю со-хра-ни не-вреж-ден--ну.
[V:3]c2ccccc2 |ccc4c4 |]
[V:4]c2ccccc2ccc4f4 |]
%%newpage
